blockchains/ethereum/assets/0xD46bA6D942050d489DBd938a2C909A5d5039A161/logo.svg

<svg fill="none" height="250" viewBox="0 0 250 250" width="250" xmlns="http://www.w3.org/2000/svg" xmlns:xlink="http://www.w3.org/1999/xlink"><clipPath id="a"><path d="m0 0h250v250h-250z"/></clipPath><g clip-path="url(#a)"><rect fill="#fff" height="250" rx="125" width="250"/><path d="m52.1768 197.887c-.1192-2.012-.1192-4.053-.0298-6.065.6852-.204 1.4003-.35 2.1154-.437 2.0856-.35 4.1415-.846 6.1377-1.429.5661-.175 1.1024-.35 1.6388-.584 2.6517-1.02 5.0055-2.682 6.7932-4.869 1.2514-1.517 2.324-3.15 3.2476-4.899 1.311-2.362 2.473-4.812 3.486-7.32 2.0559-5.045 4.1415-10.119 6.1675-15.163 7.0316-17.409 14.0632-34.848 21.0948-52.257 6.674-16.563 13.199-33.1555 19.635-49.8063.119-.35.268-.6707.417-1.0207 2.354-.6415 4.708-1.3122 7.121-1.9537.149.3499.268.6415.387.9331 2.712 7.436 5.423 14.872 8.134 22.308 9.266 25.3406 18.562 50.6816 28.097 75.9346 2.592 6.911 5.244 13.793 7.895 20.675 1.043 2.8 2.265 5.57 3.665 8.224.626 1.137 1.281 2.245 1.996 3.324 2.205 3.353 5.632 5.774 9.594 6.794 2.116.555 4.291.963 6.466 1.254l1.549.234c.209.67.09 1.341.119 1.983.03.641 0 1.37 0 2.07.03.671 0 1.341-.029 1.983-.209.029-.388.087-.567.087-.238 0-.476 0-.744 0h-53.84c-.059-.116-.089-.233-.119-.379 0-1.837 0-3.645 0-5.482.03-.087.03-.175.06-.233.447-.117.923-.204 1.37-.263 2.235-.291 4.469-.729 6.645-1.283.893-.233 1.757-.554 2.592-.875.417-.175.834-.349 1.221-.583 2.145-1.195 3.01-3.032 2.831-5.394-.09-1.079-.298-2.129-.566-3.179-.417-1.633-1.043-3.208-1.609-4.782-11.322-30.882-22.495-61.821-33.549-92.7902-.119-.3499-.149-.6999-.507-1.0206-.119.0583-.268.1166-.357.2333-.09.1458-.149.3207-.209.4957-5.393 15.222-11.173 30.3268-16.894 45.4618-4.2304 11.198-8.4613 22.395-12.424 33.681-1.5791 4.52-3.0987 9.069-4.5884 13.647-.5661 1.75-1.013 3.528-1.2812 5.336-.2085 1.225-.2383 2.45-.1192 3.675.1788 1.604 1.0429 3.062 2.3836 3.995.8641.612 1.8175 1.079 2.8603 1.429 1.609.554 3.2775.962 4.9758 1.254 1.877.349 3.7541.583 5.6011.874.119.029.239.059.388.088.059.146.089.262.089.408v5.307c0 .117-.03.204-.06.321-.178.029-.327.058-.506.088-.238 0-.477 0-.745 0z" fill="#000"/></g></svg>

<svg width="250" height="250" viewBox="0 0 250 250" fill="none" xmlns="http://www.w3.org/2000/svg">
<g clip-path="url(#clip0_37_33767)">
<rect width="250" height="250" rx="125" fill="white"/>
<path d="M52.1768 197.887C52.0576 195.875 52.0576 193.834 52.147 191.822C52.8322 191.618 53.5473 191.472 54.2624 191.385C56.348 191.035 58.4039 190.539 60.4001 189.956C60.9662 189.781 61.5025 189.606 62.0389 189.372C64.6906 188.352 67.0444 186.69 68.8321 184.503C70.0835 182.986 71.1561 181.353 72.0797 179.604C73.3907 177.242 74.5527 174.792 75.5657 172.284C77.6216 167.239 79.7072 162.165 81.7332 157.121C88.7648 139.712 95.7964 122.273 102.828 104.864C109.502 88.301 116.027 71.7085 122.463 55.0577C122.582 54.7077 122.731 54.387 122.88 54.037C125.234 53.3955 127.588 52.7248 130.001 52.0833C130.15 52.4332 130.269 52.7248 130.388 53.0164C133.1 60.4524 135.811 67.8884 138.522 75.3244C147.788 100.665 157.084 126.006 166.619 151.259C169.211 158.17 171.863 165.052 174.514 171.934C175.557 174.734 176.779 177.504 178.179 180.158C178.805 181.295 179.46 182.403 180.175 183.482C182.38 186.835 185.807 189.256 189.769 190.276C191.885 190.831 194.06 191.239 196.235 191.53L197.784 191.764C197.993 192.434 197.874 193.105 197.903 193.747C197.933 194.388 197.903 195.117 197.903 195.817C197.933 196.488 197.903 197.158 197.874 197.8C197.665 197.829 197.486 197.887 197.307 197.887C197.069 197.887 196.831 197.887 196.563 197.887H142.723C142.664 197.771 142.634 197.654 142.604 197.508C142.604 195.671 142.604 193.863 142.604 192.026C142.634 191.939 142.634 191.851 142.664 191.793C143.111 191.676 143.587 191.589 144.034 191.53C146.269 191.239 148.503 190.801 150.679 190.247C151.572 190.014 152.436 189.693 153.271 189.372C153.688 189.197 154.105 189.023 154.492 188.789C156.637 187.594 157.502 185.757 157.323 183.395C157.233 182.316 157.025 181.266 156.757 180.216C156.34 178.583 155.714 177.008 155.148 175.434C143.826 144.552 132.653 113.613 121.599 82.6438C121.48 82.2939 121.45 81.9439 121.092 81.6232C120.973 81.6815 120.824 81.7398 120.735 81.8565C120.645 82.0023 120.586 82.1772 120.526 82.3522C115.133 97.5742 109.353 112.679 103.632 127.814C99.4016 139.012 95.1707 150.209 91.208 161.495C89.6289 166.015 88.1093 170.564 86.6196 175.142C86.0535 176.892 85.6066 178.67 85.3384 180.478C85.1299 181.703 85.1001 182.928 85.2192 184.153C85.398 185.757 86.2621 187.215 87.6028 188.148C88.4669 188.76 89.4203 189.227 90.4631 189.577C92.0721 190.131 93.7406 190.539 95.4389 190.831C97.3159 191.18 99.193 191.414 101.04 191.705C101.159 191.734 101.279 191.764 101.428 191.793C101.487 191.939 101.517 192.055 101.517 192.201C101.517 193.98 101.517 195.73 101.517 197.508C101.517 197.625 101.487 197.712 101.457 197.829C101.279 197.858 101.13 197.887 100.951 197.917C100.713 197.917 100.474 197.917 100.206 197.917L52.1768 197.887Z" fill="black"/>
</g>
<defs>
<clipPath id="clip0_37_33767">
<rect width="250" height="250" fill="white"/>
</clipPath>
</defs>
</svg>
